svg/fluentui-system-icons/ic_fluent_delete_dismiss_24_filled.svg

<svg width="24" height="24" viewBox="0 0 24 24" fill="none" xmlns="http://www.w3.org/2000/svg">
<path d="M14 5C14 3.89543 13.1046 3 12 3C10.8954 3 10 3.89543 10 5H14ZM8.5 5C8.5 3.067 10.067 1.5 12 1.5C13.933 1.5 15.5 3.067 15.5 5H21.25C21.6642 5 22 5.33579 22 5.75C22 6.16421 21.6642 6.5 21.25 6.5H19.9309L19.4281 11.6953C18.5482 11.2506 17.5534 11 16.5 11C12.9101 11 10 13.9101 10 17.5C10 19.2465 10.6888 20.8321 11.8096 22H8.97369C7.04254 22 5.42715 20.5334 5.24113 18.6112L4.06908 6.5H2.75C2.33579 6.5 2 6.16421 2 5.75C2 5.33579 2.33579 5 2.75 5H8.5ZM22 17.5C22 20.5376 19.5376 23 16.5 23C13.4624 23 11 20.5376 11 17.5C11 14.4624 13.4624 12 16.5 12C19.5376 12 22 14.4624 22 17.5ZM14.8536 15.1464C14.6583 14.9512 14.3417 14.9512 14.1464 15.1464C13.9512 15.3417 13.9512 15.6583 14.1464 15.8536L15.7929 17.5L14.1464 19.1464C13.9512 19.3417 13.9512 19.6583 14.1464 19.8536C14.3417 20.0488 14.6583 20.0488 14.8536 19.8536L16.5 18.2071L18.1464 19.8536C18.3417 20.0488 18.6583 20.0488 18.8536 19.8536C19.0488 19.6583 19.0488 19.3417 18.8536 19.1464L17.2071 17.5L18.8536 15.8536C19.0488 15.6583 19.0488 15.3417 18.8536 15.1464C18.6583 14.9512 18.3417 14.9512 18.1464 15.1464L16.5 16.7929L14.8536 15.1464Z" fill="#212121"/>
</svg>

<svg xmlns="http://www.w3.org/2000/svg" width="24" height="24"><path d="M14 5a2 2 0 1 0-4 0h4ZM8.5 5a3.5 3.5 0 1 1 7 0h5.75a.75.75 0 0 1 0 1.5h-1.32l-.502 5.195A6.5 6.5 0 0 0 11.81 22H8.975a3.75 3.75 0 0 1-3.733-3.389L4.07 6.5H2.75a.75.75 0 0 1 0-1.5H8.5ZM22 17.5a5.5 5.5 0 1 1-11 0 5.5 5.5 0 0 1 11 0Zm-7.146-2.354a.5.5 0 0 0-.708.708l1.647 1.646-1.647 1.646a.5.5 0 0 0 .708.708l1.646-1.647 1.646 1.647a.5.5 0 0 0 .708-.708L17.207 17.5l1.647-1.646a.5.5 0 0 0-.708-.708L16.5 16.793l-1.646-1.647Z"/></svg>
